src/svg/24/user_outline_24.svg

<?xml version="1.0" encoding="UTF-8"?>
<svg width="24px" height="24px" viewBox="0 0 24 24" version="1.1" xmlns="http://www.w3.org/2000/svg" xmlns:xlink="http://www.w3.org/1999/xlink">
    <!-- Generator: Sketch 50.2 (55047) - http://www.bohemiancoding.com/sketch -->
    <title>user_outline_24</title>
    <desc>Created with Sketch.</desc>
    <defs></defs>
    <g id="Page-2" stroke="none" stroke-width="1" fill="none" fill-rule="evenodd">
        <g id="user_outline_24">
            <polygon id="Bounds" points="0 0 24 0 24 24 0 24"></polygon>
            <path d="M14.85,7.94999981 C14.85,6.37518108 13.5748187,5.09999981 12,5.09999981 C10.4251813,5.09999981 9.15,6.37518108 9.15,7.94999981 C9.15,9.52481853 10.4251813,10.7999998 12,10.7999998 C13.5748187,10.7999998 14.85,9.52481853 14.85,7.94999981 Z M16.65,7.94999981 C16.65,10.5189311 14.5689313,12.5999998 12,12.5999998 C9.43106873,12.5999998 7.35,10.5189311 7.35,7.94999981 C7.35,5.38106853 9.43106873,3.29999981 12,3.29999981 C14.5689313,3.29999981 16.65,5.38106853 16.65,7.94999981 Z M5.9,18.4285653 C5.9,19.1974172 5.80923371,19.0999939 6.23529412,19.0999939 L17.7647059,19.0999939 C18.1907663,19.0999939 18.1,19.1974172 18.1,18.4285653 C18.1,16.5359751 15.3218072,15.3999939 12,15.3999939 C8.67819281,15.3999939 5.9,16.5359751 5.9,18.4285653 Z M4.1,18.4285653 C4.1,15.1017678 7.77278758,13.5999939 12,13.5999939 C16.2272124,13.5999939 19.9,15.1017678 19.9,18.4285653 C19.9,20.1641778 19.2144625,20.8999939 17.7647059,20.8999939 L6.23529412,20.8999939 C4.78553753,20.8999939 4.1,20.1641778 4.1,18.4285653 Z" id="Mask" fill="currentColor" fill-rule="nonzero"></path>
        </g>
    </g>
</svg>

<svg xmlns="http://www.w3.org/2000/svg" width="24" height="24" fill="currentColor" viewBox="0 0 24 24"><path d="M14.85 7.95A2.849 2.849 0 0 0 12 5.1a2.849 2.849 0 0 0-2.85 2.85A2.849 2.849 0 0 0 12 10.8a2.849 2.849 0 0 0 2.85-2.85Zm1.8 0A4.649 4.649 0 0 1 12 12.6a4.649 4.649 0 0 1-4.65-4.65A4.649 4.649 0 0 1 12 3.3a4.649 4.649 0 0 1 4.65 4.65ZM5.9 18.429c0 .768-.09.671.335.671h11.53c.426 0 .335.097.335-.671 0-1.893-2.778-3.029-6.1-3.029-3.322 0-6.1 1.136-6.1 3.029Zm-1.8 0c0-3.327 3.673-4.829 7.9-4.829s7.9 1.502 7.9 4.829c0 1.735-.685 2.471-2.135 2.471H6.235c-1.45 0-2.135-.736-2.135-2.471Z"/></svg>
